app/graphics/contact.svg

<svg viewBox="0 -26 512 512" xmlns="http://www.w3.org/2000/svg"><path d="m256 100c-5.519531 0-10 4.480469-10 10s4.480469 10 10 10 10-4.480469 10-10-4.480469-10-10-10zm0 0"/><path d="m90 280c5.519531 0 10-4.480469 10-10s-4.480469-10-10-10-10 4.480469-10 10 4.480469 10 10 10zm0 0"/><path d="m336 0c-90.027344 0-163.917969 62.070312-169.632812 140.253906-85.738282 4.300782-166.367188 66.125-166.367188 149.746094 0 34.945312 13.828125 68.804688 39 95.632812 4.980469 20.53125-1.066406 42.292969-16.070312 57.296876-2.859376 2.859374-3.714844 7.160156-2.167969 10.898437 1.546875 3.734375 5.191406 6.171875 9.238281 6.171875 28.519531 0 56.003906-11.183594 76.425781-30.890625 19.894531 6.78125 45.851563 10.890625 69.574219 10.890625 90.015625 0 163.898438-62.054688 169.628906-140.222656 20.9375-.929688 42.714844-4.796875 59.945313-10.667969 20.421875 19.707031 47.90625 30.890625 76.425781 30.890625 4.046875 0 7.691406-2.4375 9.238281-6.171875 1.546875-3.738281.691407-8.039063-2.167969-10.898437-15.003906-15.003907-21.050781-36.765626-16.070312-57.296876 25.171875-26.828124 39-60.6875 39-95.632812 0-86.886719-86.839844-150-176-150zm-160 420c-23.601562 0-50.496094-4.632812-68.511719-11.800781-3.859375-1.539063-8.269531-.527344-11.078125 2.539062-12.074218 13.199219-27.773437 22.402344-44.878906 26.632813 9.425781-18.058594 11.832031-39.347656 6.097656-59.519532-.453125-1.589843-1.292968-3.042968-2.445312-4.226562-22.6875-23.367188-35.183594-53.066406-35.183594-83.625 0-70.46875 71.4375-130 156-130 79.851562 0 150 55.527344 150 130 0 71.683594-67.289062 130-150 130zm280.816406-186.375c-1.152344 1.1875-1.992187 2.640625-2.445312 4.226562-5.734375 20.171876-3.328125 41.460938 6.097656 59.519532-17.105469-4.226563-32.804688-13.433594-44.878906-26.632813-2.808594-3.0625-7.21875-4.078125-11.078125-2.539062-15.613281 6.210937-37.886719 10.511719-58.914063 11.550781-2.921875-37.816406-21.785156-73.359375-54.035156-99.75h130.4375c5.523438 0 10-4.476562 10-10s-4.476562-10-10-10h-161.160156c-22.699219-11.554688-48.1875-18.292969-74.421875-19.707031 5.746093-67.164063 70.640625-120.292969 149.582031-120.292969 84.5625 0 156 59.53125 156 130 0 30.558594-12.496094 60.257812-35.183594 83.625zm0 0"/><path d="m256 260h-126c-5.523438 0-10 4.476562-10 10s4.476562 10 10 10h126c5.523438 0 10-4.476562 10-10s-4.476562-10-10-10zm0 0"/><path d="m256 320h-166c-5.523438 0-10 4.476562-10 10s4.476562 10 10 10h166c5.523438 0 10-4.476562 10-10s-4.476562-10-10-10zm0 0"/><path d="m422 100h-126c-5.523438 0-10 4.476562-10 10s4.476562 10 10 10h126c5.523438 0 10-4.476562 10-10s-4.476562-10-10-10zm0 0"/></svg>

<?xml version="1.0" encoding="utf-8"?>
<!-- Generator: Adobe Illustrator 24.0.1, SVG Export Plug-In . SVG Version: 6.00 Build 0)  -->
<svg version="1.1" id="Layer_1" xmlns="http://www.w3.org/2000/svg" xmlns:xlink="http://www.w3.org/1999/xlink" x="0px" y="0px"
	 viewBox="0 0 512 460" style="enable-background:new 0 0 512 460;" xml:space="preserve">
<path d="M256,100c-5.5,0-10,4.5-10,10s4.5,10,10,10s10-4.5,10-10S261.5,100,256,100z"/>
<path d="M90,280c5.5,0,10-4.5,10-10s-4.5-10-10-10s-10,4.5-10,10S84.5,280,90,280z"/>
<path d="M336,0c-90,0-163.9,62.1-169.6,140.3C80.6,144.6,0,206.4,0,290c0,34.9,13.8,68.8,39,95.6c5,20.5-1.1,42.3-16.1,57.3
	c-2.9,2.9-3.7,7.2-2.2,10.9c1.5,3.7,5.2,6.2,9.2,6.2c28.5,0,56-11.2,76.4-30.9c19.9,6.8,45.9,10.9,69.6,10.9
	c90,0,163.9-62.1,169.6-140.2c20.9-0.9,42.7-4.8,59.9-10.7C426,308.8,453.5,320,482,320c4,0,7.7-2.4,9.2-6.2c1.5-3.7,0.7-8-2.2-10.9
	c-15-15-21.1-36.8-16.1-57.3c25.2-26.8,39-60.7,39-95.6C512,63.1,425.2,0,336,0z M176,420c-23.6,0-50.5-4.6-68.5-11.8
	c-3.9-1.5-8.3-0.5-11.1,2.5c-12.1,13.2-27.8,22.4-44.9,26.6c9.4-18.1,11.8-39.3,6.1-59.5c-0.5-1.6-1.3-3-2.4-4.2
	C32.5,350.3,20,320.6,20,290c0-70.5,71.4-130,156-130c79.9,0,150,55.5,150,130C326,361.7,258.7,420,176,420z M456.8,233.6
	c-1.2,1.2-2,2.6-2.4,4.2c-5.7,20.2-3.3,41.5,6.1,59.5c-17.1-4.2-32.8-13.4-44.9-26.6c-2.8-3.1-7.2-4.1-11.1-2.5
	c-15.6,6.2-37.9,10.5-58.9,11.6c-2.9-37.8-21.8-73.4-54-99.8H422c5.5,0,10-4.5,10-10s-4.5-10-10-10H260.8
	c-22.7-11.6-48.2-18.3-74.4-19.7C192.2,73.1,257.1,20,336,20c84.6,0,156,59.5,156,130C492,180.6,479.5,210.3,456.8,233.6z"/>
<path d="M256,260H130c-5.5,0-10,4.5-10,10s4.5,10,10,10h126c5.5,0,10-4.5,10-10S261.5,260,256,260z"/>
<path d="M256,320H90c-5.5,0-10,4.5-10,10s4.5,10,10,10h166c5.5,0,10-4.5,10-10S261.5,320,256,320z"/>
<path d="M422,100H296c-5.5,0-10,4.5-10,10s4.5,10,10,10h126c5.5,0,10-4.5,10-10S427.5,100,422,100z"/>
</svg>
